X: 23690
T: Lios An Uisce
R: reel
M: 4/4
K: Amixolydian
|:z2{c}AB {c}AG{A}GE|c3d cAG{AB}E|D2de dcAB|c2{e}cE {A}ED{E}D2:|
zAde {a}fdAB|c3d cAG{AB}E|D2de dcAB|c2{e}cE {A}ED{E}D2|
zAde {a}fdAB|c3dc AG{AB}E|DE{A}=FG Ad{e}dc|ABcE {A}ED{E}D2:|
z2{c}AB {c}AG{A}GE|c3d c/d/c/A/ G/A/G/E/|D2 c/d/c/A/ G/E/D c/d/c/A/|G{AG}ED6-|D6z2|

